logos/solana--light.svg

<?xml version="1.0" encoding="UTF-8"?>
<svg width="111px" height="16px" viewBox="0 0 111 16" version="1.1" xmlns="http://www.w3.org/2000/svg" xmlns:xlink="http://www.w3.org/1999/xlink">
    <title>logo/solana</title>
    <defs>
        <linearGradient x1="8.43931122%" y1="89.8942236%" x2="90.4955866%" y2="11.1216003%" id="linearGradient-1">
            <stop stop-color="#9945FF" offset="8%"></stop>
            <stop stop-color="#8752F3" offset="30%"></stop>
            <stop stop-color="#5497D5" offset="50%"></stop>
            <stop stop-color="#43B4CA" offset="60%"></stop>
            <stop stop-color="#28E0B9" offset="72%"></stop>
            <stop stop-color="#19FB9B" offset="97%"></stop>
        </linearGradient>
    </defs>
    <g id="Website" stroke="none" stroke-width="1" fill="none" fill-rule="evenodd">
        <g id="Desktop-Home-Default-Dark" transform="translate(-281.000000, -684.000000)" fill-rule="nonzero">
            <g id="section-header" transform="translate(160.000000, 240.000000)">
                <g id="logo/solana" transform="translate(121.000000, 444.000000)">
                    <path d="M18.2386215,12.6150647 L15.2119134,15.7817314 C15.1464429,15.8505147 15.0671711,15.9054147 14.9790003,15.9429647 C14.8908466,15.9805314 14.7956898,15.9999814 14.699491,16.0000647 L0.35166493,16.0000647 C0.28323434,16.0000647 0.216298315,15.9805314 0.159053905,15.9439314 C0.101811203,15.907348 0.0567453645,15.8552647 0.0293734701,15.7940647 C0.00200157565,15.7328647 -0.00648755478,15.6652147 0.00494629615,15.5993814 C0.0163801471,15.533548 0.0472382216,15.4723814 0.093745675,15.423398 L3.1170376,12.2567314 C3.1825081,12.1879647 3.26177984,12.1330647 3.34995064,12.095498 C3.43810437,12.057948 3.5332612,12.038498 3.62945996,12.038398 L17.977286,12.038398 C18.0462923,12.0370147 18.1142736,12.0555814 18.172519,12.0917814 C18.2307643,12.1279814 18.2768823,12.1801814 18.3047239,12.2418147 C18.3327364,12.3034647 18.3412767,12.371798 18.329491,12.4382147 C18.3177053,12.5046314 18.2861059,12.5661647 18.2386215,12.6150647 Z M15.2119134,6.23673138 C15.1462037,6.16826471 15.0668637,6.11359805 14.9787612,6.07604805 C14.8906587,6.03851471 14.7956215,6.01889805 14.699491,6.01841471 L0.35166493,6.01841471 C0.28323434,6.01841471 0.216298315,6.03794805 0.159053905,6.07454805 C0.101811203,6.11113138 0.0567453645,6.16321471 0.0293734701,6.22441471 C0.00200157565,6.28561471 -0.00648755478,6.35326471 0.00494629615,6.41909805 C0.0163801471,6.48493138 0.0472382216,6.54609805 0.093745675,6.59508138 L3.1170376,9.76341471 C3.18274723,9.83188138 3.26208729,9.88654805 3.35018977,9.92409805 C3.43829226,9.96163138 3.53332953,9.98124805 3.62945996,9.98173138 L17.977286,9.98173138 C18.045609,9.98138138 18.1122239,9.96163138 18.1692736,9.92493138 C18.2263233,9.88821471 18.2710749,9.83611471 18.2982333,9.77498138 C18.3253916,9.71384805 18.3337612,9.64631471 18.3221463,9.58063138 C18.3107022,9.51494805 18.2799569,9.45394805 18.2334972,9.40508138 L15.2119134,6.23673138 Z M0.35166493,3.96173138 L14.699491,3.96173138 C14.7956898,3.96164805 14.8908466,3.94219805 14.9790003,3.90463138 C15.0671711,3.86708138 15.1464429,3.81218138 15.2119134,3.74339805 L18.2386215,0.576739713 C18.2861059,0.52782638 18.3177053,0.46629138 18.329491,0.39987638 C18.3412767,0.33346138 18.3327364,0.265133047 18.3047239,0.203489713 C18.2768823,0.141846547 18.2307643,0.0896427134 18.172519,0.0534472134 C18.1142736,0.0172515468 18.0462923,-0.00131881988 17.977286,7.28670656e-05 L3.62945996,7.28670656e-05 C3.5332612,0.000171673782 3.43810437,0.0196092134 3.34995064,0.0571735468 C3.26177984,0.0947377134 3.1825081,0.14962288 3.1170376,0.21840638 L0.093745675,3.38506471 C0.0472382216,3.43404805 0.0163801471,3.49521471 0.00494629615,3.56104805 C-0.00648755478,3.62688138 0.00200157565,3.69453138 0.0293734701,3.75573138 C0.0567453645,3.81693138 0.101811203,3.86901471 0.159053905,3.90559805 C0.216298315,3.94219805 0.28323434,3.96173138 0.35166493,3.96173138 Z" id="Shape" fill="url(#linearGradient-1)"></path>
                    <path d="M35.7310128,6.76678138 L28.0549258,6.76678138 L28.0549258,4.30011471 L37.7260438,4.30011471 L37.7260438,1.83341197 L28.0293047,1.83341197 C27.6979382,1.83169805 27.3696463,1.89363138 27.0628761,2.01571471 C26.7561059,2.13781471 26.4768357,2.31766471 26.2414631,2.54501471 C26.0059196,2.77236471 25.8185438,3.04276471 25.6900966,3.34074805 C25.5616494,3.63874805 25.4945221,3.95851471 25.492814,4.28178138 L25.492814,6.78178138 C25.4941805,7.10533138 25.5607954,7.42546471 25.6890718,7.72383138 C25.8173482,8.02221471 26.0045531,8.29299805 26.2400966,8.52069805 C26.4758109,8.74841471 26.7550811,8.92856471 27.0620221,9.05086471 C27.3689631,9.17316471 27.6977674,9.23521471 28.0293047,9.23344805 L35.7156401,9.23344805 L35.7156401,11.7001147 L25.675578,11.7001147 L25.675578,14.1668181 L35.7310128,14.1668181 C36.0623792,14.168548 36.3906711,14.106598 36.6974413,13.9845147 C37.0042115,13.8624147 37.2834817,13.6825647 37.5188544,13.4552147 C37.7543978,13.2278647 37.9417736,12.9574814 38.0702208,12.6594814 C38.198668,12.3614814 38.2657954,12.0417147 38.2675034,11.718448 L38.2675034,9.21844805 C38.266137,8.89489805 38.1995221,8.57478138 38.0712457,8.27639805 C37.9429693,7.97801471 37.7557643,7.70723138 37.5202208,7.47953138 C37.2845065,7.25183138 37.0052364,7.07168138 36.6982954,6.94938138 C36.3913544,6.82708138 36.06255,6.76503138 35.7310128,6.76678138 Z" id="Path" fill="#FFFFFF"></path>
                    <path d="M50.6015097,1.83333331 L42.8963854,1.83333331 C42.5645065,1.83078138 42.2353606,1.89206471 41.9277364,2.01376471 C41.6202829,2.13546471 41.3403295,2.31516471 41.1041028,2.54261471 C40.8677053,2.77004805 40.6798171,3.04073138 40.5510283,3.33916471 C40.4220687,3.63759805 40.3547705,3.95791471 40.3530624,4.28174805 L40.3530624,11.7184147 C40.3547705,12.042248 40.4220687,12.3625647 40.5510283,12.660998 C40.6798171,12.9594314 40.8677053,13.2301147 41.1041028,13.457548 C41.3403295,13.684998 41.6202829,13.864698 41.9277364,13.986398 C42.2353606,14.108098 42.5645065,14.1693814 42.8963854,14.1668294 L50.6015097,14.1668294 C50.9328761,14.168498 51.261168,14.1065647 51.5679382,13.9844814 C51.8747084,13.8623814 52.1539786,13.6825314 52.3893513,13.4551814 C52.6248947,13.2278314 52.8122705,12.9574314 52.9407177,12.659448 C53.0691649,12.361448 53.1362923,12.0416814 53.1380003,11.7184147 L53.1380003,4.28174805 C53.1362923,3.95848138 53.0691649,3.63871471 52.9407177,3.34071471 C52.8122705,3.04273138 52.6248947,2.77233138 52.3893513,2.54498138 C52.1539786,2.31763138 51.8747084,2.13778138 51.5679382,2.01568138 C51.261168,1.89359805 50.9328761,1.83166471 50.6015097,1.83333331 Z M50.5827208,11.7000814 L42.9151742,11.7000814 L42.9151742,4.30008138 L50.5793047,4.30008138 L50.5827208,11.7000814 Z" id="Shape" fill="#FFFFFF"></path>
                    <path d="M77.5890873,1.83343138 L70.0735593,1.83343138 C69.7421929,1.83168138 69.413901,1.89361471 69.1071308,2.01569805 C68.8003606,2.13779805 68.5210904,2.31764805 68.2857177,2.54499805 C68.0501742,2.77234805 67.8627985,3.04274805 67.7343513,3.34073138 C67.6059041,3.63873138 67.5387767,3.95849805 67.5370687,4.28176471 L67.5370687,14.1667647 L70.0991805,14.1667647 L70.0991805,10.115098 L77.5805469,10.115098 L77.5805469,14.1667647 L80.1426587,14.1667647 L80.1426587,4.28176471 C80.1409506,3.95708138 80.0733109,3.63594805 79.9438388,3.33684805 C79.814196,3.03776471 79.6254537,2.76663138 79.3880314,2.53904805 C79.1507798,2.31148138 78.8696308,2.13198138 78.5608109,2.01088138 C78.251991,1.88978138 77.9218202,1.82948138 77.5890873,1.83343138 Z M77.5702985,7.64843138 L70.088932,7.64843138 L70.088932,4.30009805 L77.5702985,4.30009805 L77.5702985,7.64843138 Z" id="Shape" fill="#FFFFFF"></path>
                    <path d="M107.506013,1.83341197 L99.9904848,1.83341197 C99.6591183,1.83169805 99.3308264,1.89363138 99.0240562,2.01571471 C98.717286,2.13781471 98.4381867,2.31766471 98.2026432,2.54501471 C97.9670997,2.77236471 97.7797239,3.04276471 97.6512767,3.34074805 C97.5228295,3.63874805 97.4557022,3.95851471 97.4539941,4.28178138 L97.4539941,14.1667814 L100.016106,14.1667814 L100.016106,10.1151147 L107.480392,10.1151147 L107.480392,14.1667814 L110.042503,14.1667814 L110.042503,4.28178138 C110.040795,3.95851471 109.973668,3.63874805 109.845221,3.34074805 C109.716774,3.04276471 109.529398,2.77236471 109.293854,2.54501471 C109.058311,2.31766471 108.779212,2.13781471 108.472441,2.01571471 C108.165671,1.89363138 107.837379,1.83169805 107.506013,1.83341197 Z M107.480392,7.64844805 L99.9990252,7.64844805 L99.9990252,4.30011471 L107.480392,4.30011471 L107.480392,7.64844805 Z" id="Shape" fill="#FFFFFF"></path>
                    <path d="M92.6201432,11.700098 L91.5952985,11.700098 L87.9314786,2.86676471 C87.8059351,2.56201471 87.5898637,2.30083138 87.3111059,2.11673138 C87.0323482,1.93261471 86.7035438,1.83396471 86.3668823,1.83341001 L84.0934351,1.83341001 C83.8724103,1.83233138 83.6534351,1.87371471 83.4489786,1.95519805 C83.2443513,2.03669805 83.0583419,2.15669805 82.9011991,2.30836471 C82.744227,2.46004805 82.6193668,2.64039805 82.5337923,2.83916471 C82.4482177,3.03791471 82.403637,3.25118138 82.4024413,3.46676471 L82.4024413,14.1667647 L84.9645531,14.1667647 L84.9645531,4.30009805 L85.9893978,4.30009805 L89.6515097,13.1334314 C89.7791028,13.437598 89.9968823,13.6977147 90.2768357,13.8805814 C90.5566183,14.0634647 90.8861059,14.1607647 91.2229382,14.160098 L93.4963854,14.160098 C93.7174103,14.161198 93.9363854,14.1198314 94.1408419,14.0383314 C94.3454693,13.956848 94.5314786,13.8368314 94.6886215,13.6851647 C94.8455935,13.533498 94.9704537,13.3531314 95.0560283,13.1543814 C95.1416028,12.9556147 95.1861836,12.7423647 95.1873792,12.5267647 L95.1873792,1.83341001 L92.6201432,1.83341001 L92.6201432,11.700098 Z" id="Path" fill="#FFFFFF"></path>
                    <path d="M57.9633109,1.83341471 L55.4011991,1.83341471 L55.4011991,11.7184147 C55.4029072,12.042398 55.4703761,12.362848 55.5993357,12.6613814 C55.7282954,12.9599314 55.9163544,13.2306814 56.1527519,13.458148 C56.3891494,13.6856147 56.6694444,13.8652814 56.9770687,13.9868814 C57.2848637,14.1084814 57.6141805,14.169598 57.9462301,14.1668433 L65.6325656,14.1668433 L65.6325656,11.7000814 L57.9633109,11.7000814 L57.9633109,1.83341471 Z" id="Path" fill="#FFFFFF"></path>
                </g>
            </g>
        </g>
    </g>
</svg>

<svg xmlns="http://www.w3.org/2000/svg" width="111" height="16"><defs><linearGradient x1="8.43931122%" y1="89.8942236%" x2="90.4955866%" y2="11.1216003%" id="A"><stop stop-color="#9945ff" offset="8%"/><stop stop-color="#8752f3" offset="30%"/><stop stop-color="#5497d5" offset="50%"/><stop stop-color="#43b4ca" offset="60%"/><stop stop-color="#28e0b9" offset="72%"/><stop stop-color="#19fb9b" offset="97%"/></linearGradient></defs><path d="M18.239 12.615l-3.027 3.167a.7.7 0 0 1-.233.161c-.088.038-.183.057-.28.057H.352c-.068 0-.135-.02-.193-.056s-.102-.089-.13-.15-.036-.129-.024-.195a.34.34 0 0 1 .089-.176l3.023-3.167a.7.7 0 0 1 .233-.161c.088-.038.183-.057.28-.057h14.348c.069-.001.137.017.195.053s.104.088.132.15.037.13.025.196a.34.34 0 0 1-.091.177zm-3.027-6.378c-.066-.068-.145-.123-.233-.161a.72.72 0 0 0-.279-.058H.352c-.068 0-.135.02-.193.056s-.102.089-.13.15-.036.129-.024.195a.34.34 0 0 0 .089.176l3.023 3.168c.066.068.145.123.233.161a.72.72 0 0 0 .279.058h14.348a.36.36 0 0 0 .192-.057c.057-.037.102-.089.129-.15s.036-.129.024-.194a.34.34 0 0 0-.089-.176l-3.022-3.168zM.352 3.962h14.348c.096 0 .191-.02.28-.057a.7.7 0 0 0 .233-.161L18.239.577A.34.34 0 0 0 18.329.4c.012-.066.003-.135-.025-.196s-.074-.114-.132-.15-.126-.055-.195-.053H3.629c-.096 0-.191.02-.28.057a.7.7 0 0 0-.233.161L.094 3.385a.34.34 0 0 0-.089.176c-.011.066-.003.133.024.195s.072.113.13.15.124.056.193.056z" fill="url(#A)"/><path d="M35.731 6.767h-7.676V4.3h9.671V1.833h-9.697a2.58 2.58 0 0 0-.966.182 2.52 2.52 0 0 0-.821.529 2.46 2.46 0 0 0-.551.796 2.41 2.41 0 0 0-.197.941v2.5a2.41 2.41 0 0 0 .196.942 2.46 2.46 0 0 0 .551.797 2.53 2.53 0 0 0 .822.53 2.6 2.6 0 0 0 .967.183h7.686V11.7h-10.04v2.467h10.055a2.58 2.58 0 0 0 .966-.182 2.52 2.52 0 0 0 .821-.529 2.46 2.46 0 0 0 .551-.796 2.41 2.41 0 0 0 .197-.941v-2.5a2.41 2.41 0 0 0-.196-.942 2.46 2.46 0 0 0-.551-.797 2.53 2.53 0 0 0-.822-.53 2.58 2.58 0 0 0-.967-.183zm14.871-4.934h-7.705a2.58 2.58 0 0 0-.969.18 2.53 2.53 0 0 0-.824.529c-.236.227-.424.498-.553.797s-.196.619-.198.943v7.437c.002.324.069.644.198.943s.317.569.553.797a2.53 2.53 0 0 0 .824.529 2.58 2.58 0 0 0 .969.18h7.705a2.58 2.58 0 0 0 .966-.182 2.52 2.52 0 0 0 .821-.529 2.46 2.46 0 0 0 .551-.796 2.41 2.41 0 0 0 .197-.941V4.282a2.41 2.41 0 0 0-.197-.941 2.46 2.46 0 0 0-.551-.796c-.235-.227-.515-.407-.821-.529a2.58 2.58 0 0 0-.966-.182zm-.019 9.867h-7.668V4.3h7.664l.003 7.4zm27.006-9.867h-7.516a2.57 2.57 0 0 0-.966.182c-.306.122-.586.302-.821.529a2.46 2.46 0 0 0-.551.796 2.41 2.41 0 0 0-.197.941v9.885H70.1v-4.052h7.481v4.052h2.562V4.282a2.41 2.41 0 0 0-.199-.945 2.46 2.46 0 0 0-.556-.798 2.53 2.53 0 0 0-.827-.528 2.58 2.58 0 0 0-.972-.177zm-.019 5.815h-7.481V4.3h7.481v3.348zm29.936-5.815H99.99a2.58 2.58 0 0 0-.966.182 2.53 2.53 0 0 0-.821.529 2.46 2.46 0 0 0-.551.796 2.41 2.41 0 0 0-.197.941v9.885h2.562v-4.052h7.464v4.052h2.562V4.282a2.41 2.41 0 0 0-.197-.941 2.46 2.46 0 0 0-.551-.796 2.53 2.53 0 0 0-.821-.529 2.58 2.58 0 0 0-.966-.182zm-.026 5.815h-7.481V4.3h7.481v3.348zM92.62 11.7h-1.025l-3.664-8.833a1.66 1.66 0 0 0-.62-.75 1.72 1.72 0 0 0-.944-.283h-2.273a1.72 1.72 0 0 0-.644.122 1.69 1.69 0 0 0-.548.353 1.64 1.64 0 0 0-.367.531 1.61 1.61 0 0 0-.131.628v10.7h2.562V4.3h1.025l3.662 8.833a1.66 1.66 0 0 0 .625.747 1.73 1.73 0 0 0 .946.28h2.273a1.72 1.72 0 0 0 .644-.122c.205-.081.391-.202.548-.353a1.64 1.64 0 0 0 .367-.531 1.61 1.61 0 0 0 .131-.628V1.833H92.62V11.7zM57.963 1.833h-2.562v9.885a2.41 2.41 0 0 0 .198.943 2.46 2.46 0 0 0 .553.797 2.53 2.53 0 0 0 .824.529 2.58 2.58 0 0 0 .969.18h7.686V11.7h-7.669V1.833z" fill="#fff"/></svg>
